apps/webapp/src/assets/logo/logo-name-horizontal-dark.svg

<svg xmlns="http://www.w3.org/2000/svg" xml:space="preserve" style="fill-rule:evenodd;clip-rule:evenodd;stroke-linecap:round;stroke-miterlimit:1.5" viewBox="0 0 1800 155"><path d="M392.411 261.881v7.174h-14.976v7.749h11.206v6.964h-11.206v14.871h-8.953v-36.758zM405.92 261.881v21.992q0 3.299 1.623 5.079 1.624 1.78 4.765 1.78 3.142 0 4.818-1.78t1.675-5.079v-21.992h8.954v21.94q0 4.922-2.095 8.325-2.094 3.404-5.628 5.132-3.536 1.728-7.881 1.728t-7.776-1.702q-3.429-1.702-5.419-5.132t-1.99-8.351v-21.94zM466.921 298.639h-8.953l-14.976-22.672v22.672h-8.954v-36.758h8.954l14.976 22.778v-22.778h8.953zM487.185 261.881q5.813 0 10.158 2.304 4.347 2.304 6.729 6.467t2.382 9.608q0 5.394-2.382 9.582-2.382 4.19-6.755 6.493t-10.132 2.304h-13.771v-36.758zm-.576 29.009q5.08 0 7.907-2.776t2.827-7.854q0-5.079-2.827-7.906t-7.907-2.828h-4.241v21.364zM524.781 299.006q-4.032 0-7.226-1.309-3.194-1.31-5.105-3.875t-2.016-6.179h9.53q.209 2.043 1.413 3.116t3.142 1.073q1.99 0 3.142-.916 1.152-.917 1.152-2.54 0-1.361-.917-2.251-.916-.89-2.251-1.466t-3.796-1.31q-3.56-1.1-5.813-2.199-2.251-1.1-3.874-3.246t-1.623-5.603q0-5.132 3.717-8.037 3.719-2.906 9.687-2.906 6.073 0 9.792 2.906 3.717 2.906 3.979 8.09h-9.687q-.105-1.78-1.309-2.802-1.204-1.02-3.089-1.021-1.623 0-2.618.864t-.995 2.487q0 1.78 1.676 2.775 1.675.996 5.236 2.147 3.56 1.205 5.786 2.304 2.225 1.1 3.848 3.194 1.623 2.095 1.623 5.394 0 3.14-1.597 5.707-1.596 2.565-4.634 4.084-3.036 1.518-7.173 1.519M581.227 261.881v7.174h-9.74v29.584h-8.953v-29.584h-9.74v-7.174zM604.475 298.639l-7.645-13.876h-2.146v13.876h-8.954v-36.758h15.027q4.347 0 7.41 1.519t4.581 4.162q1.52 2.645 1.519 5.891 0 3.666-2.069 6.545t-6.1 4.085l8.483 14.556zm-9.791-20.211h5.55q2.461 0 3.691-1.205 1.231-1.204 1.231-3.403 0-2.095-1.231-3.299-1.23-1.204-3.691-1.204h-5.55zM642.751 292.146h-13.718l-2.199 6.493h-9.373l13.3-36.758h10.367l13.3 36.758h-9.477zm-2.303-6.911-4.556-13.457-4.503 13.457zM656.941 280.208q0-5.446 2.357-9.713 2.356-4.268 6.571-6.65t9.556-2.383q6.546 0 11.205 3.456 4.66 3.456 6.231 9.425h-9.843q-1.1-2.304-3.116-3.508t-4.582-1.204q-4.135 0-6.702 2.88-2.566 2.88-2.566 7.697t2.566 7.697 6.702 2.88q2.566 0 4.582-1.204 2.015-1.205 3.116-3.509h9.843q-1.57 5.97-6.231 9.399-4.659 3.43-11.205 3.43-5.341 0-9.556-2.383t-6.571-6.623q-2.357-4.242-2.357-9.687M719.671 298.639l-12.358-16.232v16.232h-8.954v-36.758h8.954v16.128l12.253-16.128h10.525l-14.243 18.013 14.766 18.745zM743.809 269.055v7.435H755.8v6.912h-11.991v8.064h13.562v7.173h-22.516v-36.758h22.516v7.174zM781.928 298.639l-7.644-13.876h-2.147v13.876h-8.954v-36.758h15.028q4.346 0 7.409 1.519t4.582 4.162q1.518 2.645 1.518 5.891 0 3.666-2.068 6.545t-6.1 4.085l8.482 14.556zm-9.791-20.211h5.55q2.461 0 3.692-1.205 1.23-1.204 1.23-3.403 0-2.095-1.23-3.299-1.231-1.204-3.692-1.204h-5.55z" style="fill:hsl(240 10% 3.9%);fill-rule:nonzero" transform="translate(-1190.48 -976.718)scale(3.76262)"/><circle cx="640" cy="640" r="602.509" style="fill:hsl(240 10% 3.9%)" transform="translate(8.319 2.919)scale(.11661)"/><path d="M200 640V440l400-200 400 200v200L600 450z" style="fill:none;stroke:#000;stroke-opacity:0;stroke-width:41.03px" transform="matrix(.10466 0 0 .10466 20.118 4.254)"/><path d="M200 640V440l400-200 400 200v200L600 450z" style="fill:hsl(142.1 70.6% 45.3%)" transform="matrix(.10466 0 0 .10466 20.118 4.254)"/><path d="M200 640V440l400-200 400 200v200L600 450z" style="fill:none;stroke:#000;stroke-opacity:0;stroke-width:41.03px" transform="matrix(.10466 0 0 -.10466 20.118 150.775)"/><path d="M200 640V440l400-200 400 200v200L600 450z" style="fill:hsl(346.8 77.2% 49.8%)" transform="matrix(.10466 0 0 -.10466 20.118 150.775)"/></svg>

<?xml version="1.0" encoding="UTF-8" standalone="no"?>
<!DOCTYPE svg PUBLIC "-//W3C//DTD SVG 1.1//EN" "http://www.w3.org/Graphics/SVG/1.1/DTD/svg11.dtd">
<svg width="100%" height="100%" viewBox="0 0 1800 155" version="1.1" xmlns="http://www.w3.org/2000/svg" xmlns:xlink="http://www.w3.org/1999/xlink" xml:space="preserve" xmlns:serif="http://www.serif.com/" style="fill-rule:evenodd;clip-rule:evenodd;stroke-linecap:round;stroke-miterlimit:1.5;">
    <g transform="matrix(3.76262,0,0,3.76262,-1190.48,-976.718)">
        <path d="M392.411,261.881L392.411,269.055L377.435,269.055L377.435,276.804L388.641,276.804L388.641,283.768L377.435,283.768L377.435,298.639L368.482,298.639L368.482,261.881L392.411,261.881Z" style="fill:rgb(51,51,51);fill-rule:nonzero;"/>
        <path d="M405.92,261.881L405.92,283.873C405.92,286.072 406.461,287.765 407.543,288.952C408.625,290.139 410.214,290.732 412.308,290.732C414.403,290.732 416.008,290.139 417.126,288.952C418.243,287.765 418.801,286.072 418.801,283.873L418.801,261.881L427.755,261.881L427.755,283.821C427.755,287.102 427.057,289.877 425.66,292.146C424.264,294.415 422.388,296.126 420.032,297.278C417.675,298.43 415.048,299.006 412.151,299.006C409.254,299.006 406.662,298.438 404.375,297.304C402.089,296.169 400.283,294.459 398.956,292.172C397.63,289.886 396.966,287.102 396.966,283.821L396.966,261.881L405.92,261.881Z" style="fill:rgb(51,51,51);fill-rule:nonzero;"/>
        <path d="M466.921,298.639L457.968,298.639L442.992,275.967L442.992,298.639L434.038,298.639L434.038,261.881L442.992,261.881L457.968,284.659L457.968,261.881L466.921,261.881L466.921,298.639Z" style="fill:rgb(51,51,51);fill-rule:nonzero;"/>
        <path d="M487.185,261.881C491.06,261.881 494.446,262.649 497.343,264.185C500.241,265.721 502.484,267.877 504.072,270.652C505.66,273.427 506.454,276.63 506.454,280.26C506.454,283.856 505.66,287.05 504.072,289.842C502.484,292.635 500.232,294.799 497.317,296.335C494.402,297.871 491.025,298.639 487.185,298.639L473.414,298.639L473.414,261.881L487.185,261.881ZM486.609,290.89C489.995,290.89 492.631,289.965 494.516,288.114C496.401,286.264 497.343,283.646 497.343,280.26C497.343,276.874 496.401,274.239 494.516,272.354C492.631,270.469 489.995,269.526 486.609,269.526L482.368,269.526L482.368,290.89L486.609,290.89Z" style="fill:rgb(51,51,51);fill-rule:nonzero;"/>
        <path d="M524.781,299.006C522.093,299.006 519.684,298.569 517.555,297.697C515.426,296.824 513.724,295.532 512.45,293.822C511.176,292.111 510.504,290.052 510.434,287.643L519.964,287.643C520.103,289.005 520.574,290.043 521.377,290.759C522.18,291.474 523.227,291.832 524.519,291.832C525.846,291.832 526.893,291.527 527.661,290.916C528.429,290.305 528.813,289.458 528.813,288.376C528.813,287.469 528.507,286.718 527.896,286.125C527.285,285.531 526.535,285.043 525.645,284.659C524.755,284.275 523.489,283.838 521.849,283.349C519.475,282.616 517.538,281.883 516.036,281.15C514.535,280.417 513.244,279.335 512.162,277.904C511.08,276.473 510.539,274.605 510.539,272.301C510.539,268.88 511.778,266.201 514.256,264.264C516.735,262.326 519.964,261.358 523.943,261.358C527.992,261.358 531.256,262.326 533.735,264.264C536.213,266.201 537.54,268.898 537.714,272.354L528.027,272.354C527.957,271.167 527.521,270.233 526.718,269.552C525.915,268.872 524.886,268.531 523.629,268.531C522.547,268.531 521.674,268.819 521.011,269.395C520.348,269.971 520.016,270.8 520.016,271.882C520.016,273.069 520.574,273.994 521.692,274.657C522.809,275.321 524.554,276.036 526.928,276.804C529.301,277.607 531.23,278.375 532.714,279.108C534.197,279.841 535.48,280.906 536.562,282.302C537.644,283.699 538.185,285.496 538.185,287.696C538.185,289.79 537.653,291.692 536.588,293.403C535.524,295.113 533.979,296.475 531.954,297.487C529.93,298.499 527.539,299.006 524.781,299.006Z" style="fill:rgb(51,51,51);fill-rule:nonzero;"/>
        <path d="M581.227,261.881L581.227,269.055L571.487,269.055L571.487,298.639L562.534,298.639L562.534,269.055L552.794,269.055L552.794,261.881L581.227,261.881Z" style="fill:rgb(51,51,51);fill-rule:nonzero;"/>
        <path d="M604.475,298.639L596.83,284.763L594.684,284.763L594.684,298.639L585.73,298.639L585.73,261.881L600.757,261.881C603.655,261.881 606.125,262.387 608.167,263.4C610.209,264.412 611.736,265.8 612.748,267.562C613.761,269.325 614.267,271.289 614.267,273.453C614.267,275.897 613.577,278.078 612.198,279.998C610.82,281.918 608.786,283.28 606.098,284.083L614.581,298.639L604.475,298.639ZM594.684,278.428L600.234,278.428C601.875,278.428 603.105,278.026 603.925,277.223C604.746,276.42 605.156,275.286 605.156,273.82C605.156,272.423 604.746,271.324 603.925,270.521C603.105,269.718 601.875,269.317 600.234,269.317L594.684,269.317L594.684,278.428Z" style="fill:rgb(51,51,51);fill-rule:nonzero;"/>
        <path d="M642.751,292.146L629.033,292.146L626.834,298.639L617.461,298.639L630.761,261.881L641.128,261.881L654.428,298.639L644.951,298.639L642.751,292.146ZM640.448,285.235L635.892,271.778L631.389,285.235L640.448,285.235Z" style="fill:rgb(51,51,51);fill-rule:nonzero;"/>
        <path d="M656.941,280.208C656.941,276.577 657.727,273.34 659.298,270.495C660.869,267.65 663.059,265.433 665.869,263.845C668.679,262.257 671.864,261.462 675.425,261.462C679.789,261.462 683.524,262.614 686.63,264.918C689.737,267.222 691.814,270.364 692.861,274.343L683.018,274.343C682.284,272.807 681.246,271.638 679.902,270.835C678.558,270.032 677.031,269.631 675.32,269.631C672.563,269.631 670.329,270.591 668.618,272.511C666.908,274.431 666.052,276.996 666.052,280.208C666.052,283.419 666.908,285.985 668.618,287.905C670.329,289.825 672.563,290.785 675.32,290.785C677.031,290.785 678.558,290.383 679.902,289.581C681.246,288.778 682.284,287.608 683.018,286.072L692.861,286.072C691.814,290.052 689.737,293.185 686.63,295.471C683.524,297.758 679.789,298.901 675.425,298.901C671.864,298.901 668.679,298.107 665.869,296.518C663.059,294.93 660.869,292.722 659.298,289.895C657.727,287.067 656.941,283.838 656.941,280.208Z" style="fill:rgb(51,51,51);fill-rule:nonzero;"/>
        <path d="M719.671,298.639L707.313,282.407L707.313,298.639L698.359,298.639L698.359,261.881L707.313,261.881L707.313,278.009L719.566,261.881L730.091,261.881L715.848,279.894L730.614,298.639L719.671,298.639Z" style="fill:rgb(51,51,51);fill-rule:nonzero;"/>
        <path d="M743.809,269.055L743.809,276.49L755.8,276.49L755.8,283.402L743.809,283.402L743.809,291.466L757.371,291.466L757.371,298.639L734.855,298.639L734.855,261.881L757.371,261.881L757.371,269.055L743.809,269.055Z" style="fill:rgb(51,51,51);fill-rule:nonzero;"/>
        <path d="M781.928,298.639L774.284,284.763L772.137,284.763L772.137,298.639L763.183,298.639L763.183,261.881L778.211,261.881C781.108,261.881 783.578,262.387 785.62,263.4C787.662,264.412 789.189,265.8 790.202,267.562C791.214,269.325 791.72,271.289 791.72,273.453C791.72,275.897 791.031,278.078 789.652,279.998C788.273,281.918 786.24,283.28 783.552,284.083L792.034,298.639L781.928,298.639ZM772.137,278.428L777.687,278.428C779.328,278.428 780.558,278.026 781.379,277.223C782.199,276.42 782.609,275.286 782.609,273.82C782.609,272.423 782.199,271.324 781.379,270.521C780.558,269.718 779.328,269.317 777.687,269.317L772.137,269.317L772.137,278.428Z" style="fill:rgb(51,51,51);fill-rule:nonzero;"/>
    </g>
    <g transform="matrix(0.118083,0,0,0.118083,82.95,77.55)">
        <g transform="matrix(1,0,0,1,-600,-600)">
            <g transform="matrix(0.987538,0,0,0.987538,-32.0242,-32.0242)">
                <circle cx="640" cy="640" r="602.509" style="fill:rgb(51,51,51);"/>
            </g>
            <g transform="matrix(0.793491,0,0,0.793491,600,600)">
                <g transform="matrix(1,0,0,1,-488.5,-555.5)">
                    <g transform="matrix(1,0,0,1,-147.056,-67.3771)">
                        <g transform="matrix(1.11698,0,0,1.11698,-35.0255,-159.384)">
                            <path d="M200,640L200,440L600,240L1000,440L1000,640L600,450L200,640Z" style="fill:none;stroke:black;stroke-opacity:0;stroke-width:41.03px;"/>
                            <path d="M200,640L200,440L600,240L1000,440L1000,640L600,450L200,640Z" style="fill:rgb(63,140,255);"/>
                        </g>
                        <g transform="matrix(1.11698,0,0,-1.11698,-35.0255,1404.38)">
                            <path d="M200,640L200,440L600,240L1000,440L1000,640L600,450L200,640Z" style="fill:none;stroke:black;stroke-opacity:0;stroke-width:41.03px;"/>
                            <path d="M200,640L200,440L600,240L1000,440L1000,640L600,450L200,640Z" style="fill:rgb(125,202,199);"/>
                        </g>
                    </g>
                </g>
            </g>
        </g>
    </g>
</svg>
